X:494
T:
R:vals
S:Efter »Florsen» i Burs.
O:Gotland, Burs
M:3/4
L:1/8
K:D
DF|[DFA]2 [DFA]2 [DFA]2|A2 BAGF|FEAGFE|E2 D2 z2|EGBdfb|aedcBA|^GBedcB|A4:|
|:fa|gecAce|df a2 a2|gecAce|df A2 A2|BABcdc|BAGFED|CE Acec|d4:|
|:fg|a2 a2 bc'|d'2 a2 ef|(gf)(gb)(ag)|(fa) d2 fg|a2 a2 bc'|
d'2 a2 ef|(gf)(gb)(ac)|d4::fa|(ge) (cA) (ce)|(dA) (FA) (df)|
(ec) (Ac) (e^g)|a4 fa|(ge)(cA)(ce)|(dA) (FA) (df)|(ec)(eb)(ac)|d4:|

